X:1
T: Country Lasses
C:
R:Reel
Q: 232
K:Bb
M:4/4
L:1/8
|:F|B2 df bf df|ga bg fd Bd|ef ge de fd|cd cB AF GA|
B2 df bf df|ga bg fd Bd|ef ge de fd|cB cd B3f|
b2 ba bf df|b2 ba bf df|ef ge de fe|cd cB Ac cf|
b2 ba bf df|b2 ba bf df|ef ge de fe|cB cd B3:|
